packages/foundations/assets/icons/functional/images/file/upload_32.svg

<svg width="32" height="32" viewBox="0 0 32 32" fill="none" xmlns="http://www.w3.org/2000/svg">
<g clip-path="url(#clip0_185_1006)">
<path fill-rule="evenodd" clip-rule="evenodd" d="M4 20.9998C4 20.4374 4.4376 20 5.0001 20C5.5626 20 6.0001 20.4374 6.0001 20.9999V26.9999C6.0001 27.5624 6.4376 27.9999 7.0001 27.9999H24.9999C25.5624 27.9999 25.9999 27.5624 25.9999 26.9999L26.0001 20.9998C25.9999 20.4374 26.4374 20 27 19.9998C27.5623 20 28 20.4374 28 20.9998V26.9999C28 28.6561 26.6561 29.9998 24.9999 29.9998H7.0001C5.3439 29.9998 4 28.6561 4 26.9999V20.9998ZM9.2813 8.31264C9.0938 8.50014 9.0001 8.75014 9.0001 9.00014C9.0001 9.50014 9.3438 10.0001 10.0001 10.0001C10.2501 10.0001 10.5001 9.90634 10.7188 9.71884L15 5.40644V20.9999C15 21.5624 15.4375 21.9999 16 21.9999C16.5625 21.9999 17 21.5624 17 20.9999V5.40644L21.2812 9.71884C21.4999 9.90634 21.7499 10.0001 21.9999 10.0001C22.5937 10.0001 22.9999 9.56264 22.9999 9.00014C22.9999 8.75014 22.9061 8.50014 22.7187 8.28134L16.7187 2.28144C16.5 2.09394 16.25 2.00024 16 2.00024C15.75 2.00024 15.5 2.09394 15.3125 2.28144L9.2813 8.31264Z" fill="#1A1C1F"/>
</g>
<defs>
<clipPath id="clip0_185_1006">
<rect width="32" height="32" fill="white"/>
</clipPath>
</defs>
</svg>

<svg xmlns="http://www.w3.org/2000/svg" width="32" height="32" fill="none"><g clip-path="url(#a)"><path fill="#1A1C1F" fill-rule="evenodd" d="M4 21c0-.563.438-1 1-1s1 .437 1 1v6c0 .562.438 1 1 1h18c.562 0 1-.438 1-1v-6c0-.563.437-1 1-1s1 .437 1 1v6a3 3 0 0 1-3 3H7a3 3 0 0 1-3-3zM9.281 8.313a.97.97 0 0 0-.28.687c0 .5.343 1 1 1 .25 0 .5-.094.718-.281L15 5.406V21c0 .562.438 1 1 1s1-.438 1-1V5.406l4.281 4.313A1.1 1.1 0 0 0 22 10c.594 0 1-.437 1-1 0-.25-.094-.5-.281-.719l-6-6a1.1 1.1 0 0 0-.719-.28.97.97 0 0 0-.687.28z" clip-rule="evenodd"/></g><defs><clipPath id="a"><path fill="#fff" d="M0 0h32v32H0z"/></clipPath></defs></svg>
